X:450
T:Frost is All Over, The
R:jig
Z:Transcribed by Dave Marshall
M:6/8
K:D
|: def edB | AFD E2F | DFA AFA | Bcd e3 |
def edB | AFD E2F | DFA AFA | Bdd d3 :|
|: ~f3 agf | ~g3 bag | ~f3 agf
|1 gfg e3 |~f3 agf | ~g3 bag | ~f3 ede | fdc d3 :|2
gfg efg | faf gfe | fed Bcd | ABd efg | faf gfe |
